X:1
T:Title
%%score { ( 1 4 ) | ( 2 3 ) }
L:1/8
Q:1/4=100
M:6/8
K:Ab
V:1 treble nm="Grand Piano"
V:4 treble 
V:2 bass 
V:3 bass 
V:1
 [CA]2 [CA] [CA][DB][Ec] | [FB]2 F F2 A | E2 A .[B,=DA]2 [DA] | z3 .e3 | c2 c c_c=c | %5
w: Mrs.~C.~H.~Morris * * * *|||||
 [FB]2 F F2 A | E2 A c2 A | B3 [CA]3 | [Ec]2 [CA] [CA]3 | B2 F F3 | G2 A B2 G | A2 B c2 d | %12
w: |||||||
 e2 c A3 |[M:7/8] [FB]2 [Fc] [Fd]3 [Fd] |[M:3/4] c2 A c2 B | [CA]6 |] %16
w: ||||
V:2
 [A,,E,]2 [A,,E,] [A,,A,]2 [A,,A,] | [D,A,]2 [D,A,D] [D,A,D]2 [F,A,D] | [A,C]2 [A,C] z G[B,,F,] | %3
 [E,G,]3 B,2[K:treble] E | z3 .E3 | [D,D]2 [D,A,D] [D,A,D]2 [F,A,D] | %6
 [A,C]2 [F,A,C] [E,A,E]2 [E,A,C] | [E,G,D]3 [A,,E,]3 | [A,,A,]2 [A,,E,] [A,,E,]3 | %9
 [D,F,D]2 [D,B,D] [D,B,D]3 | [E,B,D]2 [E,CE] [E,DE]2 [E,B,E] | [A,C]2 [A,DA] [A,EA]3 | %12
 [A,CE]2 [A,E][K:bass] [A,C]3 |[M:7/8] [D,A,]2 [C,=A,] [B,,B,]3 [B,,A,] | %14
[M:3/4] [E,A,E]2 [E,A,C] [E,G,E]2 [E,G,D] | [A,,E,]6 |] %16
V:3
 x6 | x6 | z3 .B,,3 | z3 E,3[K:treble] | [A,EA]2 [A,EA] [A,A]-[A,=DA][A,EA] | x6 | x6 | x6 | x6 | %9
 x6 | x6 | x6 | x3[K:bass] x3 |[M:7/8] x7 |[M:3/4] x6 | x6 |] %16
V:4
 x6 | x6 | x6 | [EB]3 G2- [Gd] | x6 | x6 | x6 | x6 | x6 | x6 | x6 | x6 | x6 |[M:7/8] x7 | %14
[M:3/4] x6 | x6 |] %16

